dist/svg/shop-line.svg

<svg xmlns="http://www.w3.org/2000/svg" viewBox="0 0 24 24"><path d="M6.958 2.28A2.76 2.76 0 0 0 5.435 3c-.215.201-2.998 3.474-2.993 3.52.002.011.122.119.267.24l.264.22-.366.012-.367.011.001 1.609c0 1.743.016 1.908.223 2.315.117.231.44.592.641.716l.132.082.012 3.887.011 3.888.109.32c.151.445.362.783.695 1.116s.671.544 1.116.695l.32.109h13l.32-.109a2.74 2.74 0 0 0 1.116-.695c.333-.333.544-.671.695-1.116l.109-.32.011-3.888.012-3.887.132-.082c.201-.124.524-.485.641-.716.207-.407.223-.572.223-2.315l.001-1.609-.367-.011-.366-.012.264-.22a3 3 0 0 0 .267-.24c.001-.011-.651-.794-1.448-1.739-.869-1.029-1.546-1.796-1.69-1.912a3.3 3.3 0 0 0-1.04-.534c-.224-.067-.574-.072-5.2-.079-2.728-.004-5.078.007-5.222.024M17.28 3.903c.184.103.373.304 1.15 1.22l.93 1.097-3.68.01c-2.024.006-5.336.006-7.36 0l-3.679-.01.915-1.084c.514-.609.981-1.125 1.065-1.177.332-.205.093-.197 5.439-.188l5 .009zm2.96 5.08v1.223l-.117.117c-.15.15-.275.15-.652-.001-.619-.248-1.117-.197-1.824.186-.553.3-.726.369-1.004.398-.305.032-.568-.03-1.035-.244-.507-.233-.838-.307-1.365-.306-.504.001-.894.09-1.399.321-.411.187-.604.243-.844.243s-.433-.056-.844-.243c-.505-.231-.895-.32-1.399-.321-.527-.001-.858.073-1.365.306-.467.214-.73.276-1.035.244-.278-.029-.451-.098-1.004-.398-.707-.383-1.205-.434-1.824-.186-.377.151-.502.151-.652.001l-.117-.117V7.76h16.48zM5.9 11.961c.68.343 1.038.442 1.6.442.481 0 .881-.094 1.376-.321.691-.316 1.044-.321 1.678-.025.541.253.92.343 1.446.343s.905-.09 1.446-.343c.634-.296.987-.291 1.678.025.495.227.895.321 1.376.321.562 0 .92-.099 1.6-.442.308-.156.609-.282.669-.282a.9.9 0 0 1 .291.089l.181.089-.01 3.741-.011 3.742-.093.189c-.132.268-.416.534-.674.63-.202.076-.31.081-1.715.081H15.24v-4.556l-.094-.261a1.75 1.75 0 0 0-1.419-1.146c-.347-.045-3.107-.045-3.454 0a1.75 1.75 0 0 0-1.419 1.146l-.094.261v4.556H7.262c-1.405 0-1.513-.005-1.715-.081-.258-.096-.542-.362-.674-.63l-.093-.189-.011-3.742-.01-3.742.17-.085c.27-.136.361-.118.971.19m7.762 3.856c.075.055.078.131.089 2.24l.011 2.183h-3.524l.011-2.183c.011-2.109.014-2.185.089-2.24.115-.084 3.209-.084 3.324 0" fill-rule="evenodd"/></svg>

<svg fill="none" xmlns="http://www.w3.org/2000/svg" viewBox="0 0 24 24"><path d="M6.958 2.280 C 6.405 2.347,5.859 2.605,5.435 3.000 C 5.220 3.201,2.437 6.474,2.442 6.520 C 2.444 6.531,2.564 6.639,2.709 6.760 L 2.973 6.980 2.607 6.992 L 2.240 7.003 2.241 8.612 C 2.241 10.355,2.257 10.520,2.464 10.927 C 2.581 11.158,2.904 11.519,3.105 11.643 L 3.237 11.725 3.249 15.612 L 3.260 19.500 3.369 19.820 C 3.520 20.265,3.731 20.603,4.064 20.936 C 4.397 21.269,4.735 21.480,5.180 21.631 L 5.500 21.740 12.000 21.740 L 18.500 21.740 18.820 21.631 C 19.265 21.480,19.603 21.269,19.936 20.936 C 20.269 20.603,20.480 20.265,20.631 19.820 L 20.740 19.500 20.751 15.612 L 20.763 11.725 20.895 11.643 C 21.096 11.519,21.419 11.158,21.536 10.927 C 21.743 10.520,21.759 10.355,21.759 8.612 L 21.760 7.003 21.393 6.992 L 21.027 6.980 21.291 6.760 C 21.436 6.639,21.556 6.531,21.558 6.520 C 21.559 6.509,20.907 5.726,20.110 4.781 C 19.241 3.752,18.564 2.985,18.420 2.869 C 18.153 2.653,17.744 2.443,17.380 2.335 C 17.156 2.268,16.806 2.263,12.180 2.256 C 9.452 2.252,7.102 2.263,6.958 2.280 M17.280 3.903 C 17.464 4.006,17.653 4.207,18.430 5.123 L 19.360 6.220 15.680 6.230 C 13.656 6.236,10.344 6.236,8.320 6.230 L 4.641 6.220 5.556 5.136 C 6.070 4.527,6.537 4.011,6.621 3.959 C 6.953 3.754,6.714 3.762,12.060 3.771 L 17.060 3.780 17.280 3.903 M20.240 8.983 L 20.240 10.206 20.123 10.323 C 19.973 10.473,19.848 10.473,19.471 10.322 C 18.852 10.074,18.354 10.125,17.647 10.508 C 17.094 10.808,16.921 10.877,16.643 10.906 C 16.338 10.938,16.075 10.876,15.608 10.662 C 15.101 10.429,14.770 10.355,14.243 10.356 C 13.739 10.357,13.349 10.446,12.844 10.677 C 12.433 10.864,12.240 10.920,12.000 10.920 C 11.760 10.920,11.567 10.864,11.156 10.677 C 10.651 10.446,10.261 10.357,9.757 10.356 C 9.230 10.355,8.899 10.429,8.392 10.662 C 7.925 10.876,7.662 10.938,7.357 10.906 C 7.079 10.877,6.906 10.808,6.353 10.508 C 5.646 10.125,5.148 10.074,4.529 10.322 C 4.152 10.473,4.027 10.473,3.877 10.323 L 3.760 10.206 3.760 8.983 L 3.760 7.760 12.000 7.760 L 20.240 7.760 20.240 8.983 M5.900 11.961 C 6.580 12.304,6.938 12.403,7.500 12.403 C 7.981 12.403,8.381 12.309,8.876 12.082 C 9.567 11.766,9.920 11.761,10.554 12.057 C 11.095 12.310,11.474 12.400,12.000 12.400 C 12.526 12.400,12.905 12.310,13.446 12.057 C 14.080 11.761,14.433 11.766,15.124 12.082 C 15.619 12.309,16.019 12.403,16.500 12.403 C 17.062 12.403,17.420 12.304,18.100 11.961 C 18.408 11.805,18.709 11.679,18.769 11.679 C 18.829 11.680,18.960 11.720,19.060 11.768 L 19.241 11.857 19.231 15.598 L 19.220 19.340 19.127 19.529 C 18.995 19.797,18.711 20.063,18.453 20.159 C 18.251 20.235,18.143 20.240,16.738 20.240 L 15.240 20.240 15.240 17.962 L 15.240 15.684 15.146 15.423 C 14.919 14.799,14.377 14.361,13.727 14.277 C 13.380 14.232,10.620 14.232,10.273 14.277 C 9.623 14.361,9.081 14.799,8.854 15.423 L 8.760 15.684 8.760 17.962 L 8.760 20.240 7.262 20.240 C 5.857 20.240,5.749 20.235,5.547 20.159 C 5.289 20.063,5.005 19.797,4.873 19.529 L 4.780 19.340 4.769 15.598 L 4.759 11.856 4.929 11.771 C 5.199 11.635,5.290 11.653,5.900 11.961 M13.662 15.817 C 13.737 15.872,13.740 15.948,13.751 18.057 L 13.762 20.240 12.000 20.240 L 10.238 20.240 10.249 18.057 C 10.260 15.948,10.263 15.872,10.338 15.817 C 10.453 15.733,13.547 15.733,13.662 15.817 " stroke="none" fill-rule="evenodd" fill="currentColor"/></svg>
